; generated by Slic3r 1.33.8-prusa3d-win64 on 2017-03-29 at 20:56:54

; external perimeters extrusion width = 0.60mm
; perimeters extrusion width = 0.43mm
; infill extrusion width = 0.70mm
; solid infill extrusion width = 0.70mm
; top infill extrusion width = 0.43mm

M107
M115 U3.0.10 ; tell printer latest fw version
M83  ; extruder relative mode
M104 S210 ; set extruder temp
M140 S50 ; set bed temp
M190 S50 ; wait for bed temp
M109 S210 ; wait for extruder temp
G28 W ; home all without mesh bed level
G80 ; mesh bed leveling
G1 Y-3.0 F1000.0 ; go outside pritn area
G1 X60.0 E9.0  F1000.0 ; intro line
G1 X100.0 E12.5  F1000.0 ; intro line
G21 ; set units to millimeters
G90 ; use absolute coordinates
M83 ; use relative distances for extrusion
G1 E-0.80000 F2100.00000
G1 Z0.200 F6000.000
G1 X112.253 Y94.803 F6000.000
G1 E0.80000 F2100.00000
M204 S1000
G1 F2100
G1 X112.331 Y94.322 E0.01986
G1 X112.493 Y93.859 E0.02003
G1 X112.734 Y93.435 E0.01986
G1 X113.048 Y93.057 E0.02003
G1 X113.421 Y92.744 E0.01986
G1 X113.847 Y92.499 E0.02003
G1 X114.306 Y92.335 E0.01986
G1 X114.790 Y92.254 E0.02003
G1 X135.086 Y92.247 E0.82726
G1 X135.558 Y92.303 E0.01936
G1 X136.017 Y92.440 E0.01953
G1 X136.445 Y92.655 E0.01953
G1 X136.829 Y92.941 E0.01953
G1 X137.034 Y93.143 E0.01169
G1 X137.216 Y93.364 E0.01169
G1 X137.374 Y93.604 E0.01169
G1 X137.506 Y93.858 E0.01169
G1 X137.611 Y94.125 E0.01169
G1 X137.688 Y94.401 E0.01169
G1 X137.736 Y94.688 E0.01186
G1 X137.754 Y94.975 E0.01169
G1 X137.753 Y115.086 E0.81975
G1 X137.697 Y115.558 E0.01936
G1 X137.560 Y116.017 E0.01953
G1 X137.347 Y116.441 E0.01936
G1 X137.062 Y116.826 E0.01953
G1 X136.860 Y117.031 E0.01169
G1 X136.639 Y117.213 E0.01169
G1 X136.396 Y117.374 E0.01186
G1 X136.142 Y117.506 E0.01169
G1 X135.875 Y117.611 E0.01169
G1 X135.599 Y117.688 E0.01169
G1 X135.312 Y117.736 E0.01186
G1 X135.025 Y117.754 E0.01169
G1 X114.914 Y117.753 E0.81975
G1 X114.442 Y117.697 E0.01936
G1 X113.983 Y117.560 E0.01953
G1 X113.559 Y117.347 E0.01936
G1 X113.174 Y117.062 E0.01953
G1 X112.977 Y116.869 E0.01119
G1 X112.799 Y116.655 E0.01136
G1 X112.645 Y116.428 E0.01119
G1 X112.513 Y116.183 E0.01136
G1 X112.407 Y115.929 E0.01119
G1 X112.327 Y115.662 E0.01136
G1 X112.274 Y115.393 E0.01119
G1 X112.248 Y115.115 E0.01136
G1 X112.249 Y94.863 E0.82549
G1 X112.631 Y94.802 F6000.000
G1 F2100
G1 X112.704 Y94.386 E0.01721
G1 X112.847 Y93.993 E0.01706
G1 X113.059 Y93.628 E0.01721
G1 X113.332 Y93.306 E0.01721
G1 X113.658 Y93.038 E0.01721
G1 X114.027 Y92.831 E0.01721
G1 X114.426 Y92.693 E0.01721
G1 X114.843 Y92.628 E0.01721
G1 X135.065 Y92.624 E0.82426
G1 X135.480 Y92.672 E0.01706
G1 X135.881 Y92.792 E0.01706
G1 X136.255 Y92.981 E0.01706
G1 X136.592 Y93.235 E0.01721
G1 X136.767 Y93.410 E0.01009
G1 X136.923 Y93.602 E0.01009
G1 X137.056 Y93.806 E0.00993
G1 X137.169 Y94.027 E0.01009
G1 X137.258 Y94.257 E0.01009
G1 X137.322 Y94.492 E0.00993
G1 X137.362 Y94.733 E0.00993
G1 X137.377 Y94.980 E0.01009
G1 X137.376 Y115.065 E0.81867
G1 X137.328 Y115.480 E0.01706
G1 X137.208 Y115.881 E0.01706
G1 X137.019 Y116.255 E0.01706
G1 X136.768 Y116.589 E0.01706
G1 X136.596 Y116.762 E0.00993
G1 X136.404 Y116.918 E0.01009
G1 X136.197 Y117.054 E0.01009
G1 X135.977 Y117.167 E0.01009
G1 X135.750 Y117.256 E0.00993
G1 X135.511 Y117.321 E0.01009
G1 X135.267 Y117.362 E0.01009
G1 X135.020 Y117.377 E0.01009
G1 X114.935 Y117.376 E0.81867
G1 X114.520 Y117.328 E0.01706
G1 X114.119 Y117.208 E0.01706
G1 X113.745 Y117.019 E0.01706
G1 X113.411 Y116.768 E0.01706
G1 X113.091 Y116.416 E0.01937
G1 X112.847 Y116.008 E0.01937
G1 X112.689 Y115.556 E0.01953
G1 X112.624 Y115.085 E0.01937
G1 X112.627 Y94.862 E0.82430
G1 F4800
G1 X112.704 Y94.386 E-0.20032
G1 F4800
G1 X112.847 Y93.993 E-0.17392
G1 F4800
G1 X113.059 Y93.628 E-0.17549
G1 F4800
G1 X113.332 Y93.306 E-0.17549
G1 F4800
G1 X113.397 Y93.253 E-0.03477
G1 E-0.04000 F2100.00000
G1 X115.587 Y95.587 F6000.000
G1 E0.80000 F2100.00000
G1 F1680
G1 X134.413 Y95.587 E0.76735
G1 X134.413 Y114.413 E0.76735
G1 X115.587 Y114.413 E0.76735
G1 X115.587 Y95.647 E0.76491
G1 X115.210 Y95.210 F6000.000
G1 F1260
G1 X134.790 Y95.210 E0.79809
G1 X134.790 Y114.790 E0.79809
G1 X115.210 Y114.790 E0.79809
G1 X115.210 Y95.270 E0.79565
G1 X115.596 Y95.314 F6000.000
G1 F4800
G1 X117.039 Y95.264 E-0.76000
G1 E-0.04000 F2100.00000
G1 X115.700 Y113.527 F6000.000
G1 E0.80000 F2100.00000
G1 F2520
G1 X116.303 Y114.130 E0.03520
G1 X116.843 Y114.130 E0.02231
G1 X115.870 Y113.157 E0.05684
G1 X115.870 Y112.617 E0.02231
G1 X117.383 Y114.130 E0.08839
G1 X117.924 Y114.130 E0.02231
G1 X115.870 Y112.076 E0.11993
G1 X115.870 Y111.536 E0.02231
G1 X118.464 Y114.130 E0.15148
G1 X119.004 Y114.130 E0.02231
G1 X115.870 Y110.996 E0.18302
G1 X115.870 Y110.456 E0.02231
G1 X119.544 Y114.130 E0.21457
G1 X120.085 Y114.130 E0.02231
G1 X115.870 Y109.915 E0.24611
G1 X115.870 Y109.375 E0.02231
G1 X120.625 Y114.130 E0.27766
G1 X121.165 Y114.130 E0.02231
G1 X115.870 Y108.835 E0.30921
G1 X115.870 Y108.295 E0.02231
G1 X121.705 Y114.130 E0.34075
G1 X122.245 Y114.130 E0.02231
G1 X115.870 Y107.755 E0.37230
G1 X115.870 Y107.214 E0.02231
G1 X122.786 Y114.130 E0.40384
G1 X123.326 Y114.130 E0.02231
G1 X115.870 Y106.674 E0.43539
G1 X115.870 Y106.134 E0.02231
G1 X123.866 Y114.130 E0.46693
G1 X124.406 Y114.130 E0.02231
G1 X115.870 Y105.594 E0.49848
G1 X115.870 Y105.054 E0.02231
G1 X124.946 Y114.130 E0.53002
G1 X125.487 Y114.130 E0.02231
G1 X115.870 Y104.513 E0.56157
G1 X115.870 Y103.973 E0.02231
G1 X126.027 Y114.130 E0.59311
G1 X126.567 Y114.130 E0.02231
G1 X115.870 Y103.433 E0.62466
G1 X115.870 Y102.893 E0.02231
G1 X127.107 Y114.130 E0.65621
G1 X127.648 Y114.130 E0.02231
G1 X115.870 Y102.352 E0.68775
G1 X115.870 Y101.812 E0.02231
G1 X128.188 Y114.130 E0.71930
G1 X128.728 Y114.130 E0.02231
G1 X115.870 Y101.272 E0.75084
G1 X115.870 Y100.732 E0.02231
G1 X129.268 Y114.130 E0.78239
G1 X129.808 Y114.130 E0.02231
G1 X115.870 Y100.192 E0.81393
G1 X115.870 Y99.651 E0.02231
G1 X130.349 Y114.130 E0.84548
G1 X130.889 Y114.130 E0.02231
G1 X115.870 Y99.111 E0.87702
G1 X115.870 Y98.571 E0.02231
G1 X131.429 Y114.130 E0.90857
G1 X131.969 Y114.130 E0.02231
G1 X115.870 Y98.031 E0.94011
G1 X115.870 Y97.491 E0.02231
G1 X132.509 Y114.130 E0.97166
G1 X133.050 Y114.130 E0.02231
G1 X115.870 Y96.950 E1.00321
G1 X115.870 Y96.410 E0.02231
G1 X133.590 Y114.130 E1.03475
G1 X134.130 Y114.130 E0.02231
G1 X115.870 Y95.870 E1.06630
G1 X116.410 Y95.870 E0.02230
G1 X134.130 Y113.590 E1.03476
G1 X134.130 Y113.050 E0.02231
G1 X116.950 Y95.870 E1.00321
G1 X117.490 Y95.870 E0.02231
G1 X134.130 Y112.510 E0.97167
G1 X134.130 Y111.969 E0.02231
G1 X118.031 Y95.870 E0.94012
G1 X118.571 Y95.870 E0.02231
G1 X134.130 Y111.429 E0.90858
G1 X134.130 Y110.889 E0.02231
G1 X119.111 Y95.870 E0.87703
G1 X119.651 Y95.870 E0.02231
G1 X134.130 Y110.349 E0.84548
G1 X134.130 Y109.808 E0.02231
G1 X120.192 Y95.870 E0.81394
G1 X120.732 Y95.870 E0.02231
G1 X134.130 Y109.268 E0.78239
G1 X134.130 Y108.728 E0.02231
G1 X121.272 Y95.870 E0.75085
G1 X121.812 Y95.870 E0.02231
G1 X134.130 Y108.188 E0.71930
G1 X134.130 Y107.648 E0.02231
G1 X122.352 Y95.870 E0.68776
G1 X122.893 Y95.870 E0.02231
G1 X134.130 Y107.107 E0.65621
G1 X134.130 Y106.567 E0.02231
G1 X123.433 Y95.870 E0.62467
G1 X123.973 Y95.870 E0.02231
G1 X134.130 Y106.027 E0.59312
G1 X134.130 Y105.487 E0.02231
G1 X124.513 Y95.870 E0.56158
G1 X125.053 Y95.870 E0.02231
G1 X134.130 Y104.947 E0.53003
G1 X134.130 Y104.406 E0.02231
G1 X125.594 Y95.870 E0.49848
G1 X126.134 Y95.870 E0.02231
G1 X134.130 Y103.866 E0.46694
G1 X134.130 Y103.326 E0.02231
G1 X126.674 Y95.870 E0.43539
G1 X127.214 Y95.870 E0.02231
G1 X134.130 Y102.786 E0.40385
G1 X134.130 Y102.246 E0.02231
G1 X127.754 Y95.870 E0.37230
G1 X128.295 Y95.870 E0.02231
G1 X134.130 Y101.705 E0.34076
G1 X134.130 Y101.165 E0.02231
G1 X128.835 Y95.870 E0.30921
G1 X129.375 Y95.870 E0.02231
G1 X134.130 Y100.625 E0.27767
G1 X134.130 Y100.085 E0.02231
G1 X129.915 Y95.870 E0.24612
G1 X130.456 Y95.870 E0.02231
G1 X134.130 Y99.544 E0.21458
G1 X134.130 Y99.004 E0.02231
G1 X130.996 Y95.870 E0.18303
G1 X131.536 Y95.870 E0.02231
G1 X134.130 Y98.464 E0.15148
G1 X134.130 Y97.924 E0.02231
G1 X132.076 Y95.870 E0.11994
G1 X132.616 Y95.870 E0.02231
G1 X134.130 Y97.384 E0.08839
G1 X134.130 Y96.843 E0.02231
G1 X133.157 Y95.870 E0.05685
G1 X133.697 Y95.870 E0.02231
G1 X134.300 Y96.473 E0.03521
M106 S255
G1 F4800
G1 X133.697 Y95.870 E-0.35443
G1 F4800
G1 X133.157 Y95.870 E-0.22453
G1 F4800
G1 X133.465 Y96.178 E-0.18104
G1 E-0.04000 F2100.00000
G1 Z0.550 F6000.000
G1 X134.260 Y95.740 F6000.000
G1 E0.80000 F2100.00000
M204 S800
G1 F1621.436
G1 X134.260 Y114.260 E1.24332
G1 X115.740 Y114.260 E1.24332
G1 X115.740 Y95.740 E1.24332
G1 X134.200 Y95.740 E1.23930
M204 S1000
G1 X134.700 Y95.300 F6000.000
M204 S800
G1 F1216.077
G1 X134.700 Y114.700 E1.92626
G1 X115.300 Y114.700 E1.92626
G1 X115.300 Y95.300 E1.92626
G1 X134.640 Y95.300 E1.92030
M204 S1000
G1 X134.596 Y95.686 F6000.000
G1 F4800
G1 X134.646 Y97.129 E-0.76000
G1 E-0.04000 F2100.00000
G1 X117.111 Y95.826 F6000.000
G1 E0.80000 F2100.00000
M204 S2000
G1 F2432.153
G1 X116.107 Y96.829 E0.17046
G1 X116.107 Y97.728 E0.10788
G1 X117.728 Y96.107 E0.27525
G1 X118.626 Y96.107 E0.10788
G1 X116.107 Y98.626 E0.42782
G1 X116.107 Y99.524 E0.10788
G1 X119.524 Y96.107 E0.58038
G1 X120.422 Y96.107 E0.10788
G1 X116.107 Y100.422 E0.73295
G1 X116.107 Y101.320 E0.10788
G1 X121.320 Y96.107 E0.88552
G1 X122.218 Y96.107 E0.10788
G1 X116.107 Y102.218 E1.03808
G1 X116.107 Y103.116 E0.10788
G1 X123.116 Y96.107 E1.19065
G1 X124.014 Y96.107 E0.10788
G1 X116.107 Y104.014 E1.34322
G1 X116.107 Y104.912 E0.10788
G1 X124.912 Y96.107 E1.49578
G1 X125.810 Y96.107 E0.10788
G1 X116.107 Y105.810 E1.64835
G1 X116.107 Y106.708 E0.10788
G1 X126.708 Y96.107 E1.80091
G1 X127.606 Y96.107 E0.10788
G1 X116.107 Y107.606 E1.95348
G1 X116.107 Y108.504 E0.10788
G1 X128.504 Y96.107 E2.10605
G1 X129.402 Y96.107 E0.10788
G1 X116.107 Y109.402 E2.25861
G1 X116.107 Y110.300 E0.10788
G1 X130.300 Y96.107 E2.41118
G1 X131.198 Y96.107 E0.10788
G1 X116.107 Y111.198 E2.56374
G1 X116.107 Y112.097 E0.10788
G1 X132.097 Y96.107 E2.71631
G1 X132.995 Y96.107 E0.10788
G1 X116.107 Y112.995 E2.86888
G1 X116.107 Y113.893 E0.10788
G1 X133.893 Y96.107 E3.02145
G1 X133.893 Y97.005 E0.10787
G1 X117.005 Y113.893 E2.86889
G1 X117.903 Y113.893 E0.10788
G1 X133.893 Y97.903 E2.71633
G1 X133.893 Y98.801 E0.10788
G1 X118.801 Y113.893 E2.56376
G1 X119.699 Y113.893 E0.10788
G1 X133.893 Y99.699 E2.41120
G1 X133.893 Y100.598 E0.10788
G1 X120.598 Y113.893 E2.25863
G1 X121.496 Y113.893 E0.10788
G1 X133.893 Y101.496 E2.10606
G1 X133.893 Y102.394 E0.10788
G1 X122.394 Y113.893 E1.95350
G1 X123.292 Y113.893 E0.10788
G1 X133.893 Y103.292 E1.80093
G1 X133.893 Y104.190 E0.10788
G1 X124.190 Y113.893 E1.64837
G1 X125.088 Y113.893 E0.10788
G1 X133.893 Y105.088 E1.49580
G1 X133.893 Y105.986 E0.10788
G1 X125.986 Y113.893 E1.34323
G1 X126.884 Y113.893 E0.10788
G1 X133.893 Y106.884 E1.19067
G1 X133.893 Y107.782 E0.10788
G1 X127.782 Y113.893 E1.03810
G1 X128.680 Y113.893 E0.10788
G1 X133.893 Y108.680 E0.88553
G1 X133.893 Y109.578 E0.10788
G1 X129.578 Y113.893 E0.73297
G1 X130.476 Y113.893 E0.10788
G1 X133.893 Y110.476 E0.58040
G1 X133.893 Y111.374 E0.10788
G1 X131.374 Y113.893 E0.42784
G1 X132.272 Y113.893 E0.10788
G1 X133.893 Y112.272 E0.27527
G1 X133.893 Y113.170 E0.10788
G1 X132.889 Y114.174 E0.17047
M204 S1000
G1 F4800
G1 X133.893 Y113.170 E-0.58983
G1 F4800
G1 X133.893 Y112.761 E-0.17017
G1 E-0.04000 F2100.00000
G1 Z0.900 F6000.000
G1 X134.260 Y114.260 F6000.000
G1 E0.80000 F2100.00000
M204 S800
G1 F1622.203
G1 X115.740 Y114.260 E1.24332
G1 X115.740 Y95.740 E1.24332
G1 X134.260 Y95.740 E1.24332
G1 X134.260 Y114.200 E1.23930
M204 S1000
G1 X134.700 Y114.700 F6000.000
M204 S800
G1 F1216.652
G1 X115.300 Y114.700 E1.92626
G1 X115.300 Y95.300 E1.92626
G1 X134.700 Y95.300 E1.92626
G1 X134.700 Y114.640 E1.92030
M204 S1000
G1 X134.314 Y114.596 F6000.000
G1 F4800
G1 X132.871 Y114.646 E-0.76000
G1 E-0.04000 F2100.00000
G1 X134.174 Y97.111 F6000.000
G1 E0.80000 F2100.00000
M204 S2000
G1 F2433.304
G1 X133.170 Y96.107 E0.17047
G1 X132.272 Y96.107 E0.10788
G1 X133.893 Y97.728 E0.27527
G1 X133.893 Y98.626 E0.10788
G1 X131.374 Y96.107 E0.42784
G1 X130.476 Y96.107 E0.10788
G1 X133.893 Y99.524 E0.58040
G1 X133.893 Y100.422 E0.10788
G1 X129.578 Y96.107 E0.73297
G1 X128.680 Y96.107 E0.10788
G1 X133.893 Y101.320 E0.88553
G1 X133.893 Y102.218 E0.10788
G1 X127.782 Y96.107 E1.03810
G1 X126.884 Y96.107 E0.10788
G1 X133.893 Y103.116 E1.19067
G1 X133.893 Y104.014 E0.10788
G1 X125.986 Y96.107 E1.34323
G1 X125.088 Y96.107 E0.10788
G1 X133.893 Y104.912 E1.49580
G1 X133.893 Y105.810 E0.10788
G1 X124.190 Y96.107 E1.64836
G1 X123.292 Y96.107 E0.10788
G1 X133.893 Y106.708 E1.80093
G1 X133.893 Y107.606 E0.10788
G1 X122.394 Y96.107 E1.95350
G1 X121.496 Y96.107 E0.10788
G1 X133.893 Y108.504 E2.10606
G1 X133.893 Y109.402 E0.10788
G1 X120.598 Y96.107 E2.25863
G1 X119.699 Y96.107 E0.10788
G1 X133.893 Y110.301 E2.41120
G1 X133.893 Y111.199 E0.10788
G1 X118.801 Y96.107 E2.56376
G1 X117.903 Y96.107 E0.10788
G1 X133.893 Y112.097 E2.71633
G1 X133.893 Y112.995 E0.10788
G1 X117.005 Y96.107 E2.86889
G1 X116.107 Y96.107 E0.10787
G1 X133.893 Y113.893 E3.02145
G1 X132.995 Y113.893 E0.10788
G1 X116.107 Y97.005 E2.86888
G1 X116.107 Y97.903 E0.10788
G1 X132.097 Y113.893 E2.71631
G1 X131.198 Y113.893 E0.10788
G1 X116.107 Y98.802 E2.56375
G1 X116.107 Y99.700 E0.10788
G1 X130.300 Y113.893 E2.41118
G1 X129.402 Y113.893 E0.10788
G1 X116.107 Y100.598 E2.25861
G1 X116.107 Y101.496 E0.10788
G1 X128.504 Y113.893 E2.10605
G1 X127.606 Y113.893 E0.10788
G1 X116.107 Y102.394 E1.95348
G1 X116.107 Y103.292 E0.10788
G1 X126.708 Y113.893 E1.80091
G1 X125.810 Y113.893 E0.10788
G1 X116.107 Y104.190 E1.64835
G1 X116.107 Y105.088 E0.10788
G1 X124.912 Y113.893 E1.49578
G1 X124.014 Y113.893 E0.10788
G1 X116.107 Y105.986 E1.34322
G1 X116.107 Y106.884 E0.10788
G1 X123.116 Y113.893 E1.19065
G1 X122.218 Y113.893 E0.10788
G1 X116.107 Y107.782 E1.03808
G1 X116.107 Y108.680 E0.10788
G1 X121.320 Y113.893 E0.88552
G1 X120.422 Y113.893 E0.10788
G1 X116.107 Y109.578 E0.73295
G1 X116.107 Y110.476 E0.10788
G1 X119.524 Y113.893 E0.58038
G1 X118.626 Y113.893 E0.10788
G1 X116.107 Y111.374 E0.42782
G1 X116.107 Y112.272 E0.10788
G1 X117.728 Y113.893 E0.27525
G1 X116.829 Y113.893 E0.10788
G1 X115.826 Y112.889 E0.17046
M204 S1000
G1 F4800
G1 X116.829 Y113.893 E-0.58976
G1 F4800
G1 X117.239 Y113.893 E-0.17024
G1 E-0.04000 F2100.00000
G1 Z1.250 F6000.000
G1 Z1.750 F6000.000
G1 X115.740 Y114.260 F6000.000
G1 Z1.250 F6000.000
G1 E0.80000 F2100.00000
M204 S800
G1 F918.965
G1 X115.740 Y95.740 E1.24332
G1 X134.260 Y95.740 E1.24332
G1 X134.260 Y114.260 E1.24332
G1 X115.800 Y114.260 E1.23930
M204 S1000
G1 X115.300 Y114.700 F6000.000
M204 S800
G1 F689.224
G1 X115.300 Y95.300 E1.92626
G1 X134.700 Y95.300 E1.92626
G1 X134.700 Y114.700 E1.92626
G1 X115.360 Y114.700 E1.92030
M204 S1000
G1 X115.404 Y114.314 F6000.000
G1 F4800
G1 X115.354 Y112.871 E-0.76000
G1 E-0.04000 F2100.00000
G1 Z1.750 F6000.000
G1 X115.826 Y107.314 F6000.000
G1 Z1.250 F6000.000
G1 E0.80000 F2100.00000
M204 S2000
G1 F1378.448
G1 X122.405 Y113.893 E1.09974
G1 X133.893 Y113.893 E1.35799
G1 X133.893 Y112.125 E0.20896
G1 X117.875 Y96.107 E2.67770
G1 X131.131 Y96.107 E1.56696
G1 X134.174 Y99.150 E0.50869
M204 S1000
G1 F4800
G1 X132.881 Y97.857 E-0.76000
G1 E-0.04000 F2100.00000
G1 Z1.750 F6000.000
G1 X127.851 Y95.826 F6000.000
G1 Z1.250 F6000.000
G1 E0.80000 F2100.00000
M204 S2000
G1 F1378.448
